.local/share/icons/Gruvbox-Plus-Dark/places/16/folder-meocloud.svg

<svg width="16" height="16" version="1.1" xmlns="http://www.w3.org/2000/svg">
  <defs>
    <style id="current-color-scheme" type="text/css">.ColorScheme-Text { color:#ebdbb2; } .ColorScheme-Highlight { color:#458588; }</style>
  </defs>
  <path class="ColorScheme-Text" d="m9.599 2.667c-1.604 0-3.07 0.902-3.797 2.33-0.318-0.13-0.659-0.197-1.003-0.198-1.334 0-2.46 0.988-2.638 2.31-1.291 0.444-2.16 1.658-2.161 3.024 0 1.767 1.433 3.2 3.201 3.2h9.598c1.768 0 3.201-1.433 3.201-3.2-1e-3 -1.358-0.859-2.567-2.141-3.016 4e-3 -0.061 6e-3 -0.124 8e-3 -0.185 0-2.356-1.912-4.265-4.268-4.265zm0 2.666c0.913 0 1.596 0.682 1.599 1.594v8e-3c-0.082 1.197 0.646 2.301 1.779 2.698 0.222 0.078 0.356 0.266 0.357 0.5 0 0.326-0.208 0.534-0.534 0.534h-9.599c-0.325 0-0.532-0.207-0.534-0.532v-2e-3c1e-3 -0.236 0.136-0.423 0.36-0.5 0.953-0.328 1.64-1.165 1.776-2.164 1.282 0.519 2.749-0.028 3.377-1.261 0.275-0.541 0.816-0.875 1.419-0.875z" fill="currentColor"/>
</svg>

<svg xmlns="http://www.w3.org/2000/svg" style="isolation:isolate" width="16" height="16" viewBox="0 0 16 16">
  <defs>
   <style id="current-color-scheme" type="text/css">
   .ColorScheme-Text { color:#ebdbb2; } .ColorScheme-Highlight { color:#458588; }
  </style>
  <linearGradient id="arrongin" x1="0%" x2="0%" y1="0%" y2="100%">
   <stop offset="0%" style="stop-color:#d79921; stop-opacity:1"/>
   <stop offset="100%" style="stop-color:#b57614; stop-opacity:1"/>
  </linearGradient>
  <linearGradient id="aurora" x1="0%" x2="0%" y1="0%" y2="100%">
   <stop offset="0%" style="stop-color:#83a598; stop-opacity:1"/>
   <stop offset="100%" style="stop-color:#b16286; stop-opacity:1"/>
  </linearGradient>
  <linearGradient id="fitdance" x1="0%" x2="0%" y1="0%" y2="100%">
   <stop offset="0%" style="stop-color:#8ec07c; stop-opacity:1"/>
   <stop offset="100%" style="stop-color:#458588; stop-opacity:1"/>
  </linearGradient>
  <linearGradient id="oomox" x1="0%" x2="0%" y1="0%" y2="100%">
   <stop offset="0%" style="stop-color:#458588; stop-opacity:1"/>
   <stop offset="100%" style="stop-color:#928374; stop-opacity:1"/>
  </linearGradient>
  <linearGradient id="rainblue" x1="0%" x2="0%" y1="0%" y2="100%">
   <stop offset="0%" style="stop-color:#b8bb26; stop-opacity:1"/>
   <stop offset="100%" style="stop-color:#076678; stop-opacity:1"/>
  </linearGradient>
  <linearGradient id="sunrise" x1="0%" x2="0%" y1="0%" y2="100%">
   <stop offset="0%" style="stop-color: #fe8019; stop-opacity:1"/>
   <stop offset="100%" style="stop-color: #fabd2f; stop-opacity:1"/>
  </linearGradient>
  <linearGradient id="telinkrin" x1="0%" x2="0%" y1="0%" y2="100%">
   <stop offset="0%" style="stop-color: #83a598; stop-opacity:1"/>
   <stop offset="100%" style="stop-color: #83a598; stop-opacity:1"/>
  </linearGradient>
  <linearGradient id="60spsycho" x1="0%" x2="0%" y1="0%" y2="100%">
   <stop offset="0%" style="stop-color: #fb4934; stop-opacity:1"/>
   <stop offset="25%" style="stop-color: #fabd2f; stop-opacity:1"/>
   <stop offset="50%" style="stop-color: #fe8019; stop-opacity:1"/>
   <stop offset="100%" style="stop-color: #689d6a; stop-opacity:1"/>
  </linearGradient>
  <linearGradient id="90ssummer" x1="0%" x2="0%" y1="0%" y2="100%">
   <stop offset="0%" style="stop-color: #b16286; stop-opacity:1"/>
   <stop offset="20%" style="stop-color: #8ec07c; stop-opacity:1"/>
   <stop offset="50%" style="stop-color: #fabd2f; stop-opacity:1"/>
   <stop offset="100%" style="stop-color: #458588; stop-opacity:1"/>
  </linearGradient>
  <linearGradient id="cyberneon" x1="0%" x2="0%" y1="0%" y2="100%">
    <stop offset="0" style="stop-color:#83a598; stop-opacity:1"/>
    <stop offset="1" style="stop-color:#b16286; stop-opacity:1"/>
  </linearGradient>

  <clipPath id="_clipPath_GCGR6LVgUZUTZReG76nFyHGuDFIRViri">
   <rect width="16" height="16"/>
  </clipPath>
 </defs>
 <g clip-path="url(#_clipPath_GCGR6LVgUZUTZReG76nFyHGuDFIRViri)">
  <rect style="fill:#282828" fill-opacity="0" width="16" height="16"/>
  <path fill="currentColor" class="ColorScheme-Text" d="M 9.599 2.667 C 7.995 2.667 6.529 3.569 5.802 4.997 C 5.484 4.867 5.143 4.8 4.799 4.799 C 3.465 4.799 2.339 5.787 2.161 7.109 C 0.87 7.553 0.001 8.767 0 10.133 C 0 11.9 1.433 13.333 3.201 13.333 L 12.799 13.333 C 14.567 13.333 16 11.9 16 10.133 C 15.999 8.775 15.141 7.566 13.859 7.117 C 13.863 7.056 13.865 6.993 13.867 6.932 C 13.867 4.576 11.955 2.667 9.599 2.667 Z M 9.599 5.333 C 10.512 5.333 11.195 6.015 11.198 6.927 C 11.198 6.928 11.198 6.934 11.198 6.935 C 11.116 8.132 11.844 9.236 12.977 9.633 C 13.199 9.711 13.333 9.899 13.334 10.133 C 13.334 10.459 13.126 10.667 12.8 10.667 L 3.201 10.667 C 2.876 10.667 2.669 10.46 2.667 10.135 L 2.667 10.133 C 2.668 9.897 2.803 9.71 3.027 9.633 C 3.98 9.305 4.667 8.468 4.803 7.469 C 6.085 7.988 7.552 7.441 8.18 6.208 C 8.455 5.667 8.996 5.333 9.599 5.333 Z"/>
 </g>
</svg>
